application/web/images/arrow-right-black.svg

<svg width="7" height="12" viewBox="0 0 7 12" fill="none" xmlns="http://www.w3.org/2000/svg">
<path id="Combined Shape Copy 6" fill-rule="evenodd" clip-rule="evenodd" d="M0.701749 0.0881068C0.532771 -0.0377607 0.283515 -0.0287694 0.126006 0.11508C-0.0420029 0.26852 -0.042002 0.517294 0.126008 0.670732L5.96137 5.99998L0.126007 11.3293L0.0964744 11.3591C-0.0413462 11.5134 -0.0315018 11.7411 0.126007 11.8849C0.294017 12.0384 0.566415 12.0384 0.734425 11.8849L6.87399 6.27781C6.88449 6.26822 6.89434 6.25825 6.90353 6.24797C6.91271 6.23768 6.92125 6.22706 6.92912 6.21617C7.03938 6.06366 7.021 5.85641 6.87399 5.72215L0.734423 0.115078L0.701749 0.0881068Z" fill="black"/>
</svg>

<svg width="7" height="12" fill="none" xmlns="http://www.w3.org/2000/svg"><path id="Combined Shape Copy 6" fill-rule="evenodd" clip-rule="evenodd" d="M.702.088a.46.46 0 00-.576.027.37.37 0 000 .556L5.961 6 .126 11.33l-.03.03a.368.368 0 00.03.525.46.46 0 00.608 0l6.14-5.607a.415.415 0 00.055-.062.368.368 0 00-.055-.494L.734.115.702.088z" fill="#000"/></svg>
